(LightBurn Core 2.0.05)
(Custom GCode device profile, absolute coords)
(Bounds: X3.187 Y10.43 to X439.813 Y207.57)

(USER START SCRIPT)
G4 P5000 (wait to walk to window)

(USER START SCRIPT)
G00 G17 G40 G21(Restore metric mode)
G54
G90(Restore absolute mode)
(Cut @ 200 mm/min, 100% power
)
(air off)
M11 (tool off)
G0 X15.233 Y39.034 
(Layer C02)
M3 (tool on)
M3 (tool on)
G1 X31.745Y39.001F200  M10 Q255 (fire on)
G1 X31.711Y22.512  M10 Q255 (fire on)
G1 X15.2Y22.546  M10 Q255 (fire on)
G1 X15.233Y39.034  M10 Q255 (fire on)
M11 (tool off)
G0 X43.745 Y38.976 
M3 (tool on)
G1 X60.256Y38.943  M10 Q255 (fire on)
G1 X60.223Y22.455  M10 Q255 (fire on)
G1 X43.711Y22.488  M10 Q255 (fire on)
G1 X43.745Y38.976  M10 Q255 (fire on)
M11 (tool off)
G0 X86.442 Y39.034 
M3 (tool on)
G1 X102.953Y39.001  M10 Q255 (fire on)
G1 X102.92Y22.512  M10 Q255 (fire on)
G1 X86.408Y22.546  M10 Q255 (fire on)
G1 X86.442Y39.034  M10 Q255 (fire on)
M11 (tool off)
G0 X114.953 Y38.976 
M3 (tool on)
G1 X131.465Y38.943  M10 Q255 (fire on)
G1 X131.432Y22.455  M10 Q255 (fire on)
G1 X114.92Y22.488  M10 Q255 (fire on)
G1 X114.953Y38.976  M10 Q255 (fire on)
M11 (tool off)
G0 X157.65 Y39.034 
M3 (tool on)
G1 X174.162Y39.001  M10 Q255 (fire on)
G1 X174.128Y22.512  M10 Q255 (fire on)
G1 X157.617Y22.546  M10 Q255 (fire on)
G1 X157.65Y39.034  M10 Q255 (fire on)
M11 (tool off)
G0 X186.162 Y38.976 
M3 (tool on)
G1 X202.673Y38.943  M10 Q255 (fire on)
G1 X202.64Y22.455  M10 Q255 (fire on)
G1 X186.128Y22.488  M10 Q255 (fire on)
G1 X186.162Y38.976  M10 Q255 (fire on)
M11 (tool off)
G0 X186.219 Y67.465 
M3 (tool on)
G1 X202.731Y67.431  M10 Q255 (fire on)
G1 X202.698Y50.943  M10 Q255 (fire on)
G1 X186.186Y50.976  M10 Q255 (fire on)
G1 X186.219Y67.465  M10 Q255 (fire on)
M11 (tool off)
G0 X157.708 Y67.522 
M3 (tool on)
G1 X174.219Y67.489  M10 Q255 (fire on)
G1 X174.186Y51.001  M10 Q255 (fire on)
G1 X157.674Y51.034  M10 Q255 (fire on)
G1 X157.708Y67.522  M10 Q255 (fire on)
M11 (tool off)
G0 X115.011 Y67.465 
M3 (tool on)
G1 X131.522Y67.431  M10 Q255 (fire on)
G1 X131.489Y50.943  M10 Q255 (fire on)
G1 X114.978Y50.976  M10 Q255 (fire on)
G1 X115.011Y67.465  M10 Q255 (fire on)
M11 (tool off)
G0 X86.499 Y67.522 
M3 (tool on)
G1 X103.011Y67.489  M10 Q255 (fire on)
G1 X102.978Y51.001  M10 Q255 (fire on)
G1 X86.466Y51.034  M10 Q255 (fire on)
G1 X86.499Y67.522  M10 Q255 (fire on)
M11 (tool off)
G0 X43.802 Y67.465 
M3 (tool on)
G1 X60.314Y67.431  M10 Q255 (fire on)
G1 X60.281Y50.943  M10 Q255 (fire on)
G1 X43.769Y50.976  M10 Q255 (fire on)
G1 X43.802Y67.465  M10 Q255 (fire on)
M11 (tool off)
G0 X15.291 Y67.522 
M3 (tool on)
G1 X31.802Y67.489  M10 Q255 (fire on)
G1 X31.769Y51.001  M10 Q255 (fire on)
G1 X15.257Y51.034  M10 Q255 (fire on)
G1 X15.291Y67.522  M10 Q255 (fire on)
M11 (tool off)
G0 X15.348 Y96.011 
M3 (tool on)
G1 X31.86Y95.977  M10 Q255 (fire on)
G1 X31.827Y79.489  M10 Q255 (fire on)
G1 X15.315Y79.522  M10 Q255 (fire on)
G1 X15.348Y96.011  M10 Q255 (fire on)
M11 (tool off)
G0 X43.86 Y95.953 
M3 (tool on)
G1 X60.372Y95.92  M10 Q255 (fire on)
G1 X60.338Y79.431  M10 Q255 (fire on)
G1 X43.827Y79.465  M10 Q255 (fire on)
G1 X43.86Y95.953  M10 Q255 (fire on)
M11 (tool off)
G0 X86.557 Y96.011 
M3 (tool on)
G1 X103.069Y95.977  M10 Q255 (fire on)
G1 X103.035Y79.489  M10 Q255 (fire on)
G1 X86.524Y79.522  M10 Q255 (fire on)
G1 X86.557Y96.011  M10 Q255 (fire on)
M11 (tool off)
G0 X115.069 Y95.953 
M3 (tool on)
G1 X131.58Y95.92  M10 Q255 (fire on)
G1 X131.547Y79.431  M10 Q255 (fire on)
G1 X115.035Y79.465  M10 Q255 (fire on)
G1 X115.069Y95.953  M10 Q255 (fire on)
M11 (tool off)
G0 X157.765 Y96.011 
M3 (tool on)
G1 X174.277Y95.977  M10 Q255 (fire on)
G1 X174.244Y79.489  M10 Q255 (fire on)
G1 X157.732Y79.522  M10 Q255 (fire on)
G1 X157.765Y96.011  M10 Q255 (fire on)
M11 (tool off)
G0 X186.277 Y95.953 
M3 (tool on)
G1 X202.789Y95.92  M10 Q255 (fire on)
G1 X202.755Y79.431  M10 Q255 (fire on)
G1 X186.244Y79.465  M10 Q255 (fire on)
G1 X186.277Y95.953  M10 Q255 (fire on)
M11 (tool off)
G0 X145.801 Y108 
M3 (tool on)
G1 X214.813Y107.86  M10 Q255 (fire on)
G1 X214.616Y10.43  M10 Q255 (fire on)
G1 X145.604Y10.57  M10 Q255 (fire on)
G1 X145.801Y108  M10 Q255 (fire on)
M11 (tool off)
G0 X157.65 Y138.604 
M3 (tool on)
G1 X174.162Y138.57  M10 Q255 (fire on)
G1 X174.128Y122.082  M10 Q255 (fire on)
G1 X157.617Y122.115  M10 Q255 (fire on)
G1 X157.65Y138.604  M10 Q255 (fire on)
M11 (tool off)
G0 X186.162 Y138.546 
M3 (tool on)
G1 X202.673Y138.513  M10 Q255 (fire on)
G1 X202.64Y122.024  M10 Q255 (fire on)
G1 X186.128Y122.058  M10 Q255 (fire on)
G1 X186.162Y138.546  M10 Q255 (fire on)
M11 (tool off)
G0 X186.219 Y167.034 
M3 (tool on)
G1 X202.731Y167.001  M10 Q255 (fire on)
G1 X202.698Y150.513  M10 Q255 (fire on)
G1 X186.186Y150.546  M10 Q255 (fire on)
G1 X186.219Y167.034  M10 Q255 (fire on)
M11 (tool off)
G0 X157.708 Y167.092 
M3 (tool on)
G1 X174.219Y167.059  M10 Q255 (fire on)
G1 X174.186Y150.57  M10 Q255 (fire on)
G1 X157.674Y150.604  M10 Q255 (fire on)
G1 X157.708Y167.092  M10 Q255 (fire on)
M11 (tool off)
G0 X115.011 Y167.034 
M3 (tool on)
G1 X131.522Y167.001  M10 Q255 (fire on)
G1 X131.489Y150.513  M10 Q255 (fire on)
G1 X114.978Y150.546  M10 Q255 (fire on)
G1 X115.011Y167.034  M10 Q255 (fire on)
M11 (tool off)
G0 X86.499 Y167.092 
M3 (tool on)
G1 X103.011Y167.059  M10 Q255 (fire on)
G1 X102.978Y150.57  M10 Q255 (fire on)
G1 X86.466Y150.604  M10 Q255 (fire on)
G1 X86.499Y167.092  M10 Q255 (fire on)
M11 (tool off)
G0 X43.802 Y167.034 
M3 (tool on)
G1 X60.314Y167.001  M10 Q255 (fire on)
G1 X60.281Y150.513  M10 Q255 (fire on)
G1 X43.769Y150.546  M10 Q255 (fire on)
G1 X43.802Y167.034  M10 Q255 (fire on)
M11 (tool off)
G0 X15.291 Y167.092 
M3 (tool on)
G1 X31.802Y167.059  M10 Q255 (fire on)
G1 X31.769Y150.57  M10 Q255 (fire on)
G1 X15.257Y150.604  M10 Q255 (fire on)
G1 X15.291Y167.092  M10 Q255 (fire on)
M11 (tool off)
G0 X15.348 Y195.58 
M3 (tool on)
G1 X31.86Y195.547  M10 Q255 (fire on)
G1 X31.827Y179.059  M10 Q255 (fire on)
G1 X15.315Y179.092  M10 Q255 (fire on)
G1 X15.348Y195.58  M10 Q255 (fire on)
M11 (tool off)
G0 X43.86 Y195.523 
M3 (tool on)
G1 X60.372Y195.489  M10 Q255 (fire on)
G1 X60.338Y179.001  M10 Q255 (fire on)
G1 X43.827Y179.034  M10 Q255 (fire on)
G1 X43.86Y195.523  M10 Q255 (fire on)
M11 (tool off)
G0 X86.557 Y195.58 
M3 (tool on)
G1 X103.069Y195.547  M10 Q255 (fire on)
G1 X103.035Y179.059  M10 Q255 (fire on)
G1 X86.524Y179.092  M10 Q255 (fire on)
G1 X86.557Y195.58  M10 Q255 (fire on)
M11 (tool off)
G0 X115.069 Y195.523 
M3 (tool on)
G1 X131.58Y195.489  M10 Q255 (fire on)
G1 X131.547Y179.001  M10 Q255 (fire on)
G1 X115.035Y179.034  M10 Q255 (fire on)
G1 X115.069Y195.523  M10 Q255 (fire on)
M11 (tool off)
G0 X157.765 Y195.58 
M3 (tool on)
G1 X174.277Y195.547  M10 Q255 (fire on)
G1 X174.244Y179.059  M10 Q255 (fire on)
G1 X157.732Y179.092  M10 Q255 (fire on)
G1 X157.765Y195.58  M10 Q255 (fire on)
M11 (tool off)
G0 X186.277 Y195.523 
M3 (tool on)
G1 X202.789Y195.489  M10 Q255 (fire on)
G1 X202.755Y179.001  M10 Q255 (fire on)
G1 X186.244Y179.034  M10 Q255 (fire on)
G1 X186.277Y195.523  M10 Q255 (fire on)
M11 (tool off)
G0 X145.801 Y207.57 
M3 (tool on)
G1 X214.813Y207.43  M10 Q255 (fire on)
G1 X214.616Y110  M10 Q255 (fire on)
G1 X145.604Y110.14  M10 Q255 (fire on)
G1 X145.801Y207.57  M10 Q255 (fire on)
M11 (tool off)
G0 X240.348 Y195.58 
M3 (tool on)
G1 X256.86Y195.547  M10 Q255 (fire on)
G1 X256.827Y179.059  M10 Q255 (fire on)
G1 X240.315Y179.092  M10 Q255 (fire on)
G1 X240.348Y195.58  M10 Q255 (fire on)
M11 (tool off)
G0 X268.86 Y195.523 
M3 (tool on)
G1 X285.372Y195.489  M10 Q255 (fire on)
G1 X285.338Y179.001  M10 Q255 (fire on)
G1 X268.827Y179.034  M10 Q255 (fire on)
G1 X268.86Y195.523  M10 Q255 (fire on)
M11 (tool off)
G0 X311.557 Y195.58 
M3 (tool on)
G1 X328.069Y195.547  M10 Q255 (fire on)
G1 X328.035Y179.059  M10 Q255 (fire on)
G1 X311.524Y179.092  M10 Q255 (fire on)
G1 X311.557Y195.58  M10 Q255 (fire on)
M11 (tool off)
G0 X340.069 Y195.523 
M3 (tool on)
G1 X356.58Y195.489  M10 Q255 (fire on)
G1 X356.547Y179.001  M10 Q255 (fire on)
G1 X340.035Y179.034  M10 Q255 (fire on)
G1 X340.069Y195.523  M10 Q255 (fire on)
M11 (tool off)
G0 X382.765 Y195.58 
M3 (tool on)
G1 X399.277Y195.547  M10 Q255 (fire on)
G1 X399.244Y179.059  M10 Q255 (fire on)
G1 X382.732Y179.092  M10 Q255 (fire on)
G1 X382.765Y195.58  M10 Q255 (fire on)
M11 (tool off)
G0 X411.277 Y195.523 
M3 (tool on)
G1 X427.789Y195.489  M10 Q255 (fire on)
G1 X427.755Y179.001  M10 Q255 (fire on)
G1 X411.244Y179.034  M10 Q255 (fire on)
G1 X411.277Y195.523  M10 Q255 (fire on)
M11 (tool off)
G0 X411.219 Y167.034 
M3 (tool on)
G1 X427.731Y167.001  M10 Q255 (fire on)
G1 X427.698Y150.513  M10 Q255 (fire on)
G1 X411.186Y150.546  M10 Q255 (fire on)
G1 X411.219Y167.034  M10 Q255 (fire on)
M11 (tool off)
G0 X382.708 Y167.092 
M3 (tool on)
G1 X399.219Y167.059  M10 Q255 (fire on)
G1 X399.186Y150.57  M10 Q255 (fire on)
G1 X382.674Y150.604  M10 Q255 (fire on)
G1 X382.708Y167.092  M10 Q255 (fire on)
M11 (tool off)
G0 X340.011 Y167.034 
M3 (tool on)
G1 X356.522Y167.001  M10 Q255 (fire on)
G1 X356.489Y150.513  M10 Q255 (fire on)
G1 X339.978Y150.546  M10 Q255 (fire on)
G1 X340.011Y167.034  M10 Q255 (fire on)
M11 (tool off)
G0 X311.499 Y167.092 
M3 (tool on)
G1 X328.011Y167.059  M10 Q255 (fire on)
G1 X327.978Y150.57  M10 Q255 (fire on)
G1 X311.466Y150.604  M10 Q255 (fire on)
G1 X311.499Y167.092  M10 Q255 (fire on)
M11 (tool off)
G0 X268.802 Y167.034 
M3 (tool on)
G1 X285.314Y167.001  M10 Q255 (fire on)
G1 X285.281Y150.513  M10 Q255 (fire on)
G1 X268.769Y150.546  M10 Q255 (fire on)
G1 X268.802Y167.034  M10 Q255 (fire on)
M11 (tool off)
G0 X240.291 Y167.092 
M3 (tool on)
G1 X256.802Y167.059  M10 Q255 (fire on)
G1 X256.769Y150.57  M10 Q255 (fire on)
G1 X240.257Y150.604  M10 Q255 (fire on)
G1 X240.291Y167.092  M10 Q255 (fire on)
M11 (tool off)
G0 X240.233 Y138.604 
M3 (tool on)
G1 X256.745Y138.57  M10 Q255 (fire on)
G1 X256.711Y122.082  M10 Q255 (fire on)
G1 X240.2Y122.115  M10 Q255 (fire on)
G1 X240.233Y138.604  M10 Q255 (fire on)
M11 (tool off)
G0 X268.745 Y138.546 
M3 (tool on)
G1 X285.256Y138.513  M10 Q255 (fire on)
G1 X285.223Y122.024  M10 Q255 (fire on)
G1 X268.711Y122.058  M10 Q255 (fire on)
G1 X268.745Y138.546  M10 Q255 (fire on)
M11 (tool off)
G0 X311.442 Y138.604 
M3 (tool on)
G1 X327.953Y138.57  M10 Q255 (fire on)
G1 X327.92Y122.082  M10 Q255 (fire on)
G1 X311.408Y122.115  M10 Q255 (fire on)
G1 X311.442Y138.604  M10 Q255 (fire on)
M11 (tool off)
G0 X339.953 Y138.546 
M3 (tool on)
G1 X356.465Y138.513  M10 Q255 (fire on)
G1 X356.431Y122.024  M10 Q255 (fire on)
G1 X339.92Y122.058  M10 Q255 (fire on)
G1 X339.953Y138.546  M10 Q255 (fire on)
M11 (tool off)
G0 X382.65 Y138.604 
M3 (tool on)
G1 X399.162Y138.57  M10 Q255 (fire on)
G1 X399.128Y122.082  M10 Q255 (fire on)
G1 X382.617Y122.115  M10 Q255 (fire on)
G1 X382.65Y138.604  M10 Q255 (fire on)
M11 (tool off)
G0 X411.162 Y138.546 
M3 (tool on)
G1 X427.673Y138.513  M10 Q255 (fire on)
G1 X427.64Y122.024  M10 Q255 (fire on)
G1 X411.128Y122.058  M10 Q255 (fire on)
G1 X411.162Y138.546  M10 Q255 (fire on)
M11 (tool off)
G0 X411.277 Y95.953 
M3 (tool on)
G1 X427.789Y95.92  M10 Q255 (fire on)
G1 X427.755Y79.431  M10 Q255 (fire on)
G1 X411.244Y79.465  M10 Q255 (fire on)
G1 X411.277Y95.953  M10 Q255 (fire on)
M11 (tool off)
G0 X382.765 Y96.011 
M3 (tool on)
G1 X399.277Y95.977  M10 Q255 (fire on)
G1 X399.244Y79.489  M10 Q255 (fire on)
G1 X382.732Y79.522  M10 Q255 (fire on)
G1 X382.765Y96.011  M10 Q255 (fire on)
M11 (tool off)
G0 X340.069 Y95.953 
M3 (tool on)
G1 X356.58Y95.92  M10 Q255 (fire on)
G1 X356.547Y79.431  M10 Q255 (fire on)
G1 X340.035Y79.465  M10 Q255 (fire on)
G1 X340.069Y95.953  M10 Q255 (fire on)
M11 (tool off)
G0 X311.557 Y96.011 
M3 (tool on)
G1 X328.069Y95.977  M10 Q255 (fire on)
G1 X328.035Y79.489  M10 Q255 (fire on)
G1 X311.524Y79.522  M10 Q255 (fire on)
G1 X311.557Y96.011  M10 Q255 (fire on)
M11 (tool off)
G0 X268.86 Y95.953 
M3 (tool on)
G1 X285.372Y95.92  M10 Q255 (fire on)
G1 X285.338Y79.431  M10 Q255 (fire on)
G1 X268.827Y79.465  M10 Q255 (fire on)
G1 X268.86Y95.953  M10 Q255 (fire on)
M11 (tool off)
G0 X240.348 Y96.011 
M3 (tool on)
G1 X256.86Y95.977  M10 Q255 (fire on)
G1 X256.827Y79.489  M10 Q255 (fire on)
G1 X240.315Y79.522  M10 Q255 (fire on)
G1 X240.348Y96.011  M10 Q255 (fire on)
M11 (tool off)
G0 X240.291 Y67.522 
M3 (tool on)
G1 X256.802Y67.489  M10 Q255 (fire on)
G1 X256.769Y51.001  M10 Q255 (fire on)
G1 X240.257Y51.034  M10 Q255 (fire on)
G1 X240.291Y67.522  M10 Q255 (fire on)
M11 (tool off)
G0 X268.802 Y67.465 
M3 (tool on)
G1 X285.314Y67.431  M10 Q255 (fire on)
G1 X285.281Y50.943  M10 Q255 (fire on)
G1 X268.769Y50.976  M10 Q255 (fire on)
G1 X268.802Y67.465  M10 Q255 (fire on)
M11 (tool off)
G0 X311.499 Y67.522 
M3 (tool on)
G1 X328.011Y67.489  M10 Q255 (fire on)
G1 X327.978Y51.001  M10 Q255 (fire on)
G1 X311.466Y51.034  M10 Q255 (fire on)
G1 X311.499Y67.522  M10 Q255 (fire on)
M11 (tool off)
G0 X340.011 Y67.465 
M3 (tool on)
G1 X356.522Y67.431  M10 Q255 (fire on)
G1 X356.489Y50.943  M10 Q255 (fire on)
G1 X339.978Y50.976  M10 Q255 (fire on)
G1 X340.011Y67.465  M10 Q255 (fire on)
M11 (tool off)
G0 X382.708 Y67.522 
M3 (tool on)
G1 X399.219Y67.489  M10 Q255 (fire on)
G1 X399.186Y51.001  M10 Q255 (fire on)
G1 X382.674Y51.034  M10 Q255 (fire on)
G1 X382.708Y67.522  M10 Q255 (fire on)
M11 (tool off)
G0 X411.219 Y67.465 
M3 (tool on)
G1 X427.731Y67.431  M10 Q255 (fire on)
G1 X427.698Y50.943  M10 Q255 (fire on)
G1 X411.186Y50.976  M10 Q255 (fire on)
G1 X411.219Y67.465  M10 Q255 (fire on)
M11 (tool off)
G0 X411.162 Y38.976 
M3 (tool on)
G1 X427.673Y38.943  M10 Q255 (fire on)
G1 X427.64Y22.455  M10 Q255 (fire on)
G1 X411.128Y22.488  M10 Q255 (fire on)
G1 X411.162Y38.976  M10 Q255 (fire on)
M11 (tool off)
G0 X382.65 Y39.034 
M3 (tool on)
G1 X399.162Y39.001  M10 Q255 (fire on)
G1 X399.128Y22.512  M10 Q255 (fire on)
G1 X382.617Y22.546  M10 Q255 (fire on)
G1 X382.65Y39.034  M10 Q255 (fire on)
M11 (tool off)
G0 X339.953 Y38.976 
M3 (tool on)
G1 X356.465Y38.943  M10 Q255 (fire on)
G1 X356.431Y22.455  M10 Q255 (fire on)
G1 X339.92Y22.488  M10 Q255 (fire on)
G1 X339.953Y38.976  M10 Q255 (fire on)
M11 (tool off)
G0 X311.442 Y39.034 
M3 (tool on)
G1 X327.953Y39.001  M10 Q255 (fire on)
G1 X327.92Y22.512  M10 Q255 (fire on)
G1 X311.408Y22.546  M10 Q255 (fire on)
G1 X311.442Y39.034  M10 Q255 (fire on)
M11 (tool off)
G0 X268.745 Y38.976 
M3 (tool on)
G1 X285.256Y38.943  M10 Q255 (fire on)
G1 X285.223Y22.455  M10 Q255 (fire on)
G1 X268.711Y22.488  M10 Q255 (fire on)
G1 X268.745Y38.976  M10 Q255 (fire on)
M11 (tool off)
G0 X240.233 Y39.034 
M3 (tool on)
G1 X256.745Y39.001  M10 Q255 (fire on)
G1 X256.711Y22.512  M10 Q255 (fire on)
G1 X240.2Y22.546  M10 Q255 (fire on)
G1 X240.233Y39.034  M10 Q255 (fire on)
M11 (tool off)
G0 X228.384 Y108 
M3 (tool on)
G1 X297.396Y107.86  M10 Q255 (fire on)
G1 X297.199Y10.43  M10 Q255 (fire on)
G1 X228.187Y10.57  M10 Q255 (fire on)
G1 X228.384Y108  M10 Q255 (fire on)
M11 (tool off)
G0 X299.593  
M3 (tool on)
G1 X368.604Y107.86  M10 Q255 (fire on)
G1 X368.407Y10.43  M10 Q255 (fire on)
G1 X299.396Y10.57  M10 Q255 (fire on)
G1 X299.593Y108  M10 Q255 (fire on)
M11 (tool off)
G0 X370.801  
M3 (tool on)
G1 X439.813Y107.86  M10 Q255 (fire on)
G1 X439.616Y10.43  M10 Q255 (fire on)
G1 X370.604Y10.57  M10 Q255 (fire on)
G1 X370.801Y108  M10 Q255 (fire on)
M11 (tool off)
G0  Y207.57 
M3 (tool on)
G1 X439.813Y207.43  M10 Q255 (fire on)
G1 X439.616Y110  M10 Q255 (fire on)
G1 X370.604Y110.14  M10 Q255 (fire on)
G1 X370.801Y207.57  M10 Q255 (fire on)
M11 (tool off)
G0 X299.593  
M3 (tool on)
G1 X368.604Y207.43  M10 Q255 (fire on)
G1 X368.407Y110  M10 Q255 (fire on)
G1 X299.396Y110.14  M10 Q255 (fire on)
G1 X299.593Y207.57  M10 Q255 (fire on)
M11 (tool off)
G0 X228.384  
M3 (tool on)
G1 X297.396Y207.43  M10 Q255 (fire on)
G1 X297.199Y110  M10 Q255 (fire on)
G1 X228.187Y110.14  M10 Q255 (fire on)
G1 X228.384Y207.57  M10 Q255 (fire on)
M11 (tool off)
G0 X114.953 Y138.546 
M3 (tool on)
G1 X131.465Y138.513  M10 Q255 (fire on)
G1 X131.432Y122.024  M10 Q255 (fire on)
G1 X114.92Y122.058  M10 Q255 (fire on)
G1 X114.953Y138.546  M10 Q255 (fire on)
M11 (tool off)
G0 X86.442 Y138.604 
M3 (tool on)
G1 X102.953Y138.57  M10 Q255 (fire on)
G1 X102.92Y122.082  M10 Q255 (fire on)
G1 X86.408Y122.115  M10 Q255 (fire on)
G1 X86.442Y138.604  M10 Q255 (fire on)
M11 (tool off)
G0 X43.745 Y138.546 
M3 (tool on)
G1 X60.256Y138.513  M10 Q255 (fire on)
G1 X60.223Y122.024  M10 Q255 (fire on)
G1 X43.711Y122.058  M10 Q255 (fire on)
G1 X43.745Y138.546  M10 Q255 (fire on)
M11 (tool off)
G0 X15.233 Y138.604 
M3 (tool on)
G1 X31.745Y138.57  M10 Q255 (fire on)
G1 X31.711Y122.082  M10 Q255 (fire on)
G1 X15.2Y122.115  M10 Q255 (fire on)
G1 X15.233Y138.604  M10 Q255 (fire on)
M11 (tool off)
G0 X3.384 Y108 
M3 (tool on)
G1 X72.396Y107.86  M10 Q255 (fire on)
G1 X72.199Y10.43  M10 Q255 (fire on)
G1 X3.187Y10.57  M10 Q255 (fire on)
G1 X3.384Y108  M10 Q255 (fire on)
M11 (tool off)
G0 X74.593  
M3 (tool on)
G1 X143.604Y107.86  M10 Q255 (fire on)
G1 X143.407Y10.43  M10 Q255 (fire on)
G1 X74.396Y10.57  M10 Q255 (fire on)
G1 X74.593Y108  M10 Q255 (fire on)
M11 (tool off)
G0  Y207.57 
M3 (tool on)
G1 X143.604Y207.43  M10 Q255 (fire on)
G1 X143.407Y110  M10 Q255 (fire on)
G1 X74.396Y110.14  M10 Q255 (fire on)
G1 X74.593Y207.57  M10 Q255 (fire on)
M11 (tool off)
G0 X3.384  
M3 (tool on)
G1 X72.396Y207.43  M10 Q255 (fire on)
G1 X72.199Y110  M10 Q255 (fire on)
G1 X3.187Y110.14  M10 Q255 (fire on)
G1 X3.384Y207.57  M10 Q255 (fire on)
(air off)
M11 (tool off)
G90(Restore absolute mode)
M30
M2
G0 X0 Y0 Z100
